categories/16/applications-geology.svg

<?xml version="1.0" encoding="UTF-8" standalone="no"?>
<svg
   xmlns:dc="http://purl.org/dc/elements/1.1/"
   xmlns:cc="http://creativecommons.org/ns#"
   xmlns:rdf="http://www.w3.org/1999/02/22-rdf-syntax-ns#"
   xmlns:svg="http://www.w3.org/2000/svg"
   xmlns="http://www.w3.org/2000/svg"
   xmlns:sodipodi="http://sodipodi.sourceforge.net/DTD/sodipodi-0.dtd"
   xmlns:inkscape="http://www.inkscape.org/namespaces/inkscape"
   height="16.041"
   width="16"
   version="1.1"
   id="svg6"
   sodipodi:docname="applications-development-symbolic.svg"
   inkscape:version="0.92.3 (2405546, 2018-03-11)">
  <metadata
     id="metadata12">
    <rdf:RDF>
      <cc:Work
         rdf:about="">
        <dc:format>image/svg+xml</dc:format>
        <dc:type
           rdf:resource="http://purl.org/dc/dcmitype/StillImage" />
      </cc:Work>
    </rdf:RDF>
  </metadata>
  <defs
     id="defs10" />
  <sodipodi:namedview
     pagecolor="#808080"
     bordercolor="#808080666"
     borderopacity="1"
     objecttolerance="10"
     gridtolerance="10"
     guidetolerance="10"
     inkscape:pageopacity="0"
     inkscape:pageshadow="2"
     inkscape:window-width="909"
     inkscape:window-height="846"
     id="namedview8"
     showgrid="false"
     inkscape:zoom="14.712299"
     inkscape:cx="8"
     inkscape:cy="8.0205002"
     inkscape:window-x="341"
     inkscape:window-y="159"
     inkscape:window-maximized="0"
     inkscape:current-layer="svg6" />
  <g
     color="#000"
     transform="translate(-932 -463.96)"
     id="g4"
     style="fill:#808080;fill-opacity:1">
    <path
       d="M934 467.5s5-2.557 5 1.537V473h-.5s-.5 0-.5.5v6c0 .5.5.5.5.5h3s.5 0 .5-.5v-6c0-.5-.5-.5-.5-.5h-.5v-4.186c.01-.467.29-1.72 1.485-1.72l1.015.906h1.5v-4h-1.5l-1.015.686s-2.24-.79-3.64-.723c-1.4.067-3.165 1.192-4.845 3.537z"
       fill="#808080"
       overflow="visible"
       style="marker:none;fill:#808080;fill-opacity:1"
       id="path2" />
  </g>
</svg>

<svg xmlns="http://www.w3.org/2000/svg" width="16" height="16.041" version="1.1">
 <g style="fill:#808080" transform="translate(-932,-463.96)">
  <path style="fill:#808080" d="M 934,467.5 C 934,467.5 939,464.94 939,469.04 V 473 H 938.5 C 938.5,473 938,473 938,473.5 V 479.5 C 938,480 938.5,480 938.5,480 H 941.5 C 941.5,480 942,480 942,479.5 V 473.5 C 942,473 941.5,473 941.5,473 H 941 V 468.81 C 941.01,468.35 941.29,467.09 942.49,467.09 L 943.5,468 H 945 V 464 H 943.5 L 942.49,464.69 C 942.49,464.69 940.25,463.9 938.85,463.96 937.45,464.03 935.68,465.15 934,467.5 Z"/>
 </g>
</svg>
